packages/bezier-icons/icons/app-push.svg

<svg width="24" height="24" viewBox="0 0 24 24" fill="none" xmlns="http://www.w3.org/2000/svg">
<path fill-rule="evenodd" clip-rule="evenodd" d="M22 6.00063C22 8.20936 20.2094 10.0002 18 10.0002C15.7915 10.0002 14 8.20936 14 6.00063C14 3.791 15.7915 2.00018 18 2.00018C20.2094 2.00018 22 3.791 22 6.00063ZM12 3.00018L10.3572 3.00018C9.27341 3.00017 8.39926 3.00017 7.69138 3.058C6.96253 3.11755 6.32234 3.24336 5.73005 3.54515C4.78924 4.02452 4.02434 4.78942 3.54497 5.73023C3.24318 6.32252 3.11737 6.96271 3.05782 7.69156C2.99998 8.39944 2.99999 9.27358 3 10.3574V10.3574V13.643V13.643C2.99999 14.7268 2.99998 15.6009 3.05782 16.3088C3.11737 17.0377 3.24318 17.6778 3.54497 18.2701C4.02434 19.2109 4.78924 19.9758 5.73005 20.4552C6.32234 20.757 6.96253 20.8828 7.69138 20.9424C8.39923 21.0002 9.27334 21.0002 10.3571 21.0002H10.3572H13.6428H13.6429C14.7267 21.0002 15.6008 21.0002 16.3086 20.9424C17.0375 20.8828 17.6777 20.757 18.27 20.4552C19.2108 19.9758 19.9757 19.2109 20.455 18.2701C20.7568 17.6778 20.8826 17.0377 20.9422 16.3088C21 15.601 21 14.7268 21 13.6431V13.643V12.0002H19V13.6002C19 14.7368 18.9992 15.5291 18.9488 16.1459C18.8994 16.7511 18.8072 17.0988 18.673 17.3622C18.3854 17.9266 17.9265 18.3856 17.362 18.6732C17.0986 18.8074 16.7509 18.8996 16.1458 18.949C15.5289 18.9994 14.7366 19.0002 13.6 19.0002H10.4C9.2634 19.0002 8.47108 18.9994 7.85424 18.949C7.24907 18.8996 6.90139 18.8074 6.63803 18.6732C6.07354 18.3856 5.6146 17.9266 5.32698 17.3622C5.1928 17.0988 5.10062 16.7511 5.05118 16.1459C5.00078 15.5291 5 14.7368 5 13.6002V10.4002C5 9.26358 5.00078 8.47126 5.05118 7.85442C5.10062 7.24926 5.1928 6.90157 5.32698 6.63821C5.6146 6.07373 6.07354 5.61478 6.63803 5.32716C6.90139 5.19298 7.24907 5.1008 7.85424 5.05136C8.47108 5.00096 9.2634 5.00018 10.4 5.00018H12V3.00018Z" fill="#313234"/>
</svg>

<svg xmlns="http://www.w3.org/2000/svg" width="24" height="24" fill="none" viewBox="0 0 24 24"><path fill="#313234" fill-rule="evenodd" d="M22 6a4 4 0 1 1-8 0 4 4 0 0 1 8 0M12 3h-1.643C9.273 3 8.4 3 7.691 3.058c-.728.06-1.369.185-1.96.487A5 5 0 0 0 3.544 5.73c-.302.593-.428 1.233-.487 1.962C3 8.399 3 9.274 3 10.357v3.286c0 1.084 0 1.958.058 2.666.06.729.185 1.369.487 1.961a5 5 0 0 0 2.185 2.185c.592.302 1.233.428 1.961.487C8.4 21 9.273 21 10.357 21h3.286c1.084 0 1.958 0 2.666-.058.729-.06 1.369-.185 1.961-.487a5 5 0 0 0 2.185-2.185c.302-.592.428-1.232.487-1.961C21 15.6 21 14.727 21 13.643V12h-2v1.6c0 1.137 0 1.93-.051 2.546-.05.605-.142.953-.276 1.216a3 3 0 0 1-1.311 1.311c-.263.134-.611.227-1.216.276-.617.05-1.41.051-2.546.051h-3.2c-1.137 0-1.929 0-2.546-.051-.605-.05-.953-.142-1.216-.276a3 3 0 0 1-1.311-1.31c-.134-.264-.226-.612-.276-1.217C5.001 15.529 5 14.736 5 13.6v-3.2c0-1.136 0-1.929.051-2.546.05-.605.142-.952.276-1.216a3 3 0 0 1 1.311-1.31c.263-.135.611-.227 1.216-.277.617-.05 1.41-.05 2.546-.05H12z" clip-rule="evenodd"/></svg>
